dist/assets/images/delivery/cdek.svg

<svg width="97" height="47" viewBox="0 0 97 47" fill="none" xmlns="http://www.w3.org/2000/svg">
<g clip-path="url(#clip0_494_6716)">
<path fill-rule="evenodd" clip-rule="evenodd" d="M15.5572 31.2914H11.3674C4.83208 31.2914 9.58003 17.3224 15.0821 17.3224H21.7018C22.7628 17.3224 24.6341 17.5189 25.556 14.8771L26.9804 10.7734H17.9032C12.9874 10.7734 9.16101 12.5159 6.39605 15.4393C1.61987 20.4423 0.000251293 28.256 1.1452 31.9939C2.23449 35.4513 5.19505 37.7277 9.83129 37.7839L13.4343 37.8122H17.8753L18.9646 34.5237C19.7744 32.1908 17.9588 31.2914 15.5572 31.2914ZM66.5566 25.5015L67.9254 21.0324H53.3182C50.8884 21.0324 49.7991 21.707 49.38 23.1124L48.0113 27.5814H62.6189C65.0487 27.5814 66.138 26.9069 66.5566 25.5015ZM45.8331 33.3714L44.4643 37.84H59.0715C61.4735 37.84 62.5907 37.1659 63.0097 35.7605L64.3784 31.2914H49.7708C47.3692 31.2914 46.2799 31.966 45.8331 33.3714ZM69.9644 15.2704L71.3328 10.8017H56.7256C54.2958 10.8017 53.2065 11.4759 52.7874 12.8813L51.4187 17.3503H66.0263C68.4283 17.3503 69.5172 16.6757 69.9644 15.2704ZM47.8996 16.1701C47.2853 12.0102 45.0789 10.8017 39.7164 10.8017H29.941L24.2433 27.5814H27.8463C29.9967 27.5814 31.0859 27.6093 32.2313 24.5177L34.6051 17.3224H38.2359C41.3364 17.3224 40.6379 21.2293 39.0739 25.0234C37.6773 28.3684 35.2475 31.3193 32.3148 31.3193H26.2541C23.8243 31.3193 22.7072 31.9939 22.2603 33.3993L20.752 37.8683H25.1926L29.5498 37.84C33.4041 37.8122 36.5602 37.5312 40.2471 34.1862C44.157 30.6169 48.6819 21.454 47.8996 16.1701ZM97.0003 10.7734H88.5376L80.5774 19.2896C79.6559 20.2734 78.7062 21.2572 77.7847 22.4095H77.7008L81.6667 10.7734H74.768L65.4677 37.84H72.366L75.3266 29.3239L78.3989 26.71L80.8291 34.4114C81.5828 36.8005 82.3652 37.84 84.0409 37.84H89.3196L83.9014 22.7187L97.0003 10.7734Z" fill="#00B33C"/>
</g>
<defs>
<clipPath id="clip0_494_6716">
<rect width="97" height="47" fill="white"/>
</clipPath>
</defs>
</svg>

<svg width="97" height="47" fill="none" xmlns="http://www.w3.org/2000/svg"><g clip-path="url(#clip0_494_6716)"><path fill-rule="evenodd" clip-rule="evenodd" d="M15.557 31.291h-4.19c-6.535 0-1.787-13.969 3.715-13.969h6.62c1.06 0 2.932.197 3.854-2.445l1.424-4.104h-9.077c-4.916 0-8.742 1.743-11.507 4.666C1.62 20.442 0 28.256 1.146 31.994c1.088 3.457 4.05 5.734 8.685 5.79l3.603.028h4.441l1.09-3.288c.81-2.333-1.006-3.233-3.408-3.233zm51-5.79l1.368-4.469H53.318c-2.43 0-3.519.675-3.938 2.08l-1.369 4.47H62.62c2.43 0 3.519-.675 3.938-2.08zm-20.724 7.87l-1.369 4.469h14.608c2.401 0 3.519-.674 3.938-2.08l1.368-4.469H49.771c-2.402 0-3.491.675-3.938 2.08zm24.131-18.1l1.369-4.47H56.726c-2.43 0-3.52.675-3.939 2.08l-1.368 4.47h14.607c2.402 0 3.491-.675 3.938-2.08zm-22.064.9c-.615-4.16-2.821-5.37-8.184-5.37h-9.775l-5.698 16.78h3.603c2.15 0 3.24.028 4.385-3.063l2.374-7.196h3.63c3.101 0 2.403 3.907.839 7.701-1.397 3.345-3.826 6.296-6.76 6.296h-6.06c-2.43 0-3.547.675-3.994 2.08l-1.508 4.47h4.44l4.358-.029c3.854-.028 7.01-.309 10.697-3.654 3.91-3.57 8.435-12.732 7.653-18.016zM97 10.772h-8.462l-7.96 8.517c-.922.983-1.872 1.967-2.793 3.12H77.7l3.966-11.637h-6.899l-9.3 27.067h6.898l2.96-8.516L78.4 26.71l2.43 7.701c.754 2.39 1.536 3.429 3.212 3.429h5.279L83.9 22.719 97 10.773z" fill="#00B33C"/></g><defs><clipPath id="clip0_494_6716"><path fill="#fff" d="M0 0h97v47H0z"/></clipPath></defs></svg>
